source/img/icon-full-star.svg

<svg width="15" height="14" viewBox="0 0 15 14" fill="none" xmlns="http://www.w3.org/2000/svg">
<path d="M7.5 11.0412L12.135 13.65L10.9087 8.72975L15 5.42084L9.60676 4.98892L7.5 0.350037L5.39326 4.98892L0 5.42084L4.09126 8.72975L2.865 13.65L7.5 11.0412Z" fill="white"/>
</svg>

<svg fill="none" height="14" width="15" xmlns="http://www.w3.org/2000/svg"><path d="m7.5 11.041 4.635 2.609-1.226-4.92 4.091-3.31-5.393-.43-2.107-4.64-2.107 4.639-5.393.431 4.091 3.31-1.226 4.92z" fill="#fff"/></svg>
